X: 4337
T: Boil The Cabbage Down
R: reel
M: 4/4
K: Dmajor
|F2|:A2F2F2A2|G2B2G2F2|A2F2F2A2|E2A2E2F2|
A2F2F2A2|G2B2G2d2|B2A2F2E2|1 D6F2:|2 D8||

